X: 37634
T: Snow Leopard, The
R: reel
M: 4/4
K: Bminor
FB~B2 FADE|FB~B2 edcA|FBBA ~B3e|fBcf edce|
fB~B2 FADE|FB~B2 edcA|~B2FE FB~B2|edcd B3A:|
|:~B2fe fB~B2|edcB AE~E2|FBfe fB~B2|ceAc e3A|
~B2fe fB~B2|edcB AE~E2|ABFE FB~B2|edcd B3A:|

